; generated by Slic3r 1.2.9 on 2016-05-22 at 11:43:42

; external perimeters extrusion width = 0.40mm
; perimeters extrusion width = 0.48mm
; infill extrusion width = 0.48mm
; solid infill extrusion width = 0.48mm
; top infill extrusion width = 0.48mm

M104 S220 ; set temperature
G28 ; home all axes
G1 Z5 F5000 ; lift nozzle

M109 S220 ; wait for temperature to be reached
G21 ; set units to millimeters
G90 ; use absolute coordinates
M82 ; use absolute distances for extrusion
G92 E0
G1 Z0.400 F6000.000
G1 E-5.00000 F2400.00000
G92 E0
G1 X58.142 Y0.000 F6000.000
G1 E5.00000 F2400.00000
G1 X58.142 Y70.000 E7.82892 F600.000
G1 X57.745 Y72.513 E7.93175
G1 X56.591 Y74.781 E8.03458
G1 X54.794 Y76.582 E8.13740
G1 X52.528 Y77.740 E8.24023
G1 X50.000 Y78.142 E8.34369
G1 X-50.000 Y78.142 E12.38500
G1 X-52.513 Y77.745 E12.48783
G1 X-54.781 Y76.591 E12.59066
G1 X-56.582 Y74.794 E12.69349
G1 X-57.740 Y72.528 E12.79631
G1 X-58.142 Y70.000 E12.89977
G1 X-58.142 Y-70.000 E18.55761
G1 X-57.745 Y-72.513 E18.66044
G1 X-56.591 Y-74.781 E18.76327
G1 X-54.794 Y-76.582 E18.86609
G1 X-52.528 Y-77.740 E18.96892
G1 X-50.000 Y-78.142 E19.07238
G1 X50.000 Y-78.142 E23.11370
G1 X52.513 Y-77.745 E23.21652
G1 X54.781 Y-76.591 E23.31935 F600.000
G1 X56.582 Y-74.794 E23.42218
G1 X57.740 Y-72.528 E23.52500
G1 X58.142 Y-70.000 E23.62846
G1 X58.142 Y-0.060 E26.45496
G1 X57.428 Y0.000 F6000.000
G1 X57.428 Y70.000 E29.28388 F600.000
G1 X57.031 Y72.397 E29.38206
G1 X55.882 Y74.537 E29.48025
G1 X54.103 Y76.192 E29.57844
G1 X51.886 Y77.185 E29.67662
G1 X50.000 Y77.428 E29.75345
G1 X-50.000 Y77.428 E33.79477
G1 X-52.397 Y77.031 E33.89295
G1 X-54.537 Y75.882 E33.99114
G1 X-56.192 Y74.103 E34.08932
G1 X-57.185 Y71.886 E34.18751
G1 X-57.428 Y70.000 E34.26434
G1 X-57.428 Y-70.000 E39.92218
G1 X-57.031 Y-72.397 E40.02037
G1 X-55.882 Y-74.537 E40.11855
G1 X-54.103 Y-76.192 E40.21674
G1 X-51.886 Y-77.185 E40.31492
G1 X-50.000 Y-77.428 E40.39175
G1 X50.000 Y-77.428 E44.43307
G1 X52.397 Y-77.031 E44.53125
G1 X54.537 Y-75.882 E44.62944 F600.000
G1 X56.192 Y-74.103 E44.72762
G1 X57.185 Y-71.886 E44.82581
G1 X57.428 Y-70.000 E44.90264
G1 X57.428 Y-0.060 E47.72914
G1 X56.714 Y0.000 F6000.000
G1 X56.714 Y70.000 E50.55806 F600.000
G1 X56.317 Y72.275 E50.65137
G1 X55.173 Y74.280 E50.74468
G1 X53.417 Y75.780 E50.83799
G1 X51.257 Y76.595 E50.93131
G1 X50.000 Y76.714 E50.98234
G1 X-50.000 Y76.714 E55.02365
G1 X-52.275 Y76.317 E55.11697
G1 X-54.280 Y75.173 E55.21028
G1 X-55.780 Y73.417 E55.30359
G1 X-56.595 Y71.257 E55.39690
G1 X-56.714 Y70.000 E55.44793
G1 X-56.714 Y-70.000 E61.10577
G1 X-56.317 Y-72.275 E61.19909
G1 X-55.173 Y-74.280 E61.29240
G1 X-53.417 Y-75.780 E61.38571
G1 X-51.257 Y-76.595 E61.47902
G1 X-50.000 Y-76.714 E61.53005
G1 X50.000 Y-76.714 E65.57137
G1 X52.275 Y-76.317 E65.66468
G1 X54.280 Y-75.173 E65.75799 F600.000
G1 X55.780 Y-73.417 E65.85131
G1 X56.595 Y-71.257 E65.94462
G1 X56.714 Y-70.000 E65.99565
G1 X56.714 Y-0.060 E68.82215
G1 E63.82215 F2400.00000
G92 E0
G1 X48.172 Y-68.172 F6000.000
G1 E5.00000 F2400.00000
G1 X48.172 Y68.172 E10.51006 F780.000
G1 X-48.172 Y68.172 E14.40360
G1 X-48.172 Y-68.172 E19.91367
G1 X48.112 Y-68.172 E23.80478
G1 X48.886 Y-68.886 F6000.000
G1 X48.886 Y68.886 E29.37257 F780.000
G1 X-48.886 Y68.886 E33.32383
G1 X-48.886 Y-68.886 E38.89162
G1 X48.826 Y-68.886 E42.84046
G1 X49.600 Y-69.600 F6000.000
G1 X49.600 Y69.600 E48.46597 F546.000
G1 X-49.600 Y69.600 E52.47495
G1 X-49.600 Y-69.600 E58.10046
G1 X49.540 Y-69.600 E62.10702
G1 X49.400 Y-69.254 F6000.000
G1 X47.736 Y-67.393 F6000.000
G1 X47.393 Y-67.736 E62.12671 F585.000
G1 X46.379 Y-67.736 E62.16788
G1 X47.736 Y-66.379 E62.24579
G1 X47.736 Y-65.364 E62.28696
G1 X45.364 Y-67.736 E62.42310
G1 X44.350 Y-67.736 E62.46427
G1 X47.736 Y-64.350 E62.65863
G1 X47.736 Y-63.336 E62.69981
G1 X43.336 Y-67.736 E62.95239
G1 X42.321 Y-67.736 E62.99356
G1 X47.736 Y-62.321 E63.30438
G1 X47.736 Y-61.307 E63.34555
G1 X41.307 Y-67.736 E63.71458
G1 X40.293 Y-67.736 E63.75576
G1 X47.736 Y-60.293 E64.18302
G1 X47.736 Y-59.278 E64.22419
G1 X39.278 Y-67.736 E64.70968
G1 X38.264 Y-67.736 E64.75085
G1 X47.736 Y-58.264 E65.29456
G1 X47.736 Y-57.250 E65.33573
G1 X37.250 Y-67.736 E65.93767
G1 X36.235 Y-67.736 E65.97884
G1 X47.736 Y-56.235 E66.63900
G1 X47.736 Y-55.221 E66.68017
G1 X35.221 Y-67.736 E67.39855
G1 X34.207 Y-67.736 E67.43973
G1 X47.736 Y-54.207 E68.21634
G1 X47.736 Y-53.192 E68.25751
G1 X33.192 Y-67.736 E69.09234
G1 X32.178 Y-67.736 E69.13351
G1 X47.736 Y-52.178 E70.02658
G1 X47.736 Y-51.163 E70.06775
G1 X31.163 Y-67.736 E71.01903
G1 X30.149 Y-67.736 E71.06020
G1 X47.736 Y-50.149 E72.06971
G1 X47.736 Y-49.135 E72.11088
G1 X29.135 Y-67.736 E73.17862
G1 X28.120 Y-67.736 E73.21979
G1 X47.736 Y-48.120 E74.34575
G1 X47.736 Y-47.106 E74.38692
G1 X27.106 Y-67.736 E75.57111
G1 X26.092 Y-67.736 E75.61228
G1 X47.736 Y-46.092 E76.85469
G1 X47.736 Y-45.077 E76.89586
G1 X25.077 Y-67.736 E78.19649
G1 X24.063 Y-67.736 E78.23766
G1 X47.736 Y-44.063 E79.59652
G1 X47.736 Y-43.049 E79.63769
G1 X23.049 Y-67.736 E81.05478
G1 X22.034 Y-67.736 E81.09595
G1 X47.736 Y-42.034 E82.57126
G1 X47.736 Y-41.020 E82.61243
G1 X21.020 Y-67.736 E84.14596
G1 X20.006 Y-67.736 E84.18713
G1 X47.736 Y-40.006 E85.77889
G1 X47.736 Y-38.991 E85.82006
G1 X18.991 Y-67.736 E87.47004
G1 X17.977 Y-67.736 E87.51122
G1 X47.736 Y-37.977 E89.21942
G1 X47.736 Y-36.963 E89.26060
G1 X16.962 Y-67.736 E91.02703
G1 X15.948 Y-67.736 E91.06820
G1 X47.736 Y-35.948 E92.89286
G1 X47.736 Y-34.934 E92.93403
G1 X14.934 Y-67.736 E94.81691
G1 X13.919 Y-67.736 E94.85808
G1 X47.736 Y-33.919 E96.79919
G1 X47.736 Y-32.905 E96.84036
G1 X12.905 Y-67.736 E98.83969
G1 X11.891 Y-67.736 E98.88086
G1 X47.736 Y-31.891 E100.93842
G1 X47.736 Y-30.876 E100.97959
G1 X10.876 Y-67.736 E103.09537
G1 X9.862 Y-67.736 E103.13654
G1 X47.736 Y-29.862 E105.31055
G1 X47.736 Y-28.848 E105.35172
G1 X8.848 Y-67.736 E107.58395
G1 X7.833 Y-67.736 E107.62512
G1 X47.736 Y-27.833 E109.91558
G1 X47.736 Y-26.819 E109.95675
G1 X6.819 Y-67.736 E112.30543
G1 X5.805 Y-67.736 E112.34660
G1 X47.736 Y-25.805 E114.75351
G1 X47.736 Y-24.790 E114.79468
G1 X4.790 Y-67.736 E117.25981
G1 X3.776 Y-67.736 E117.30098
G1 X47.736 Y-23.776 E119.82434
G1 X47.736 Y-22.762 E119.86551
G1 X2.762 Y-67.736 E122.44709
G1 X1.747 Y-67.736 E122.48826
G1 X47.736 Y-21.747 E125.12807
G1 X47.736 Y-20.733 E125.16924
G1 X0.733 Y-67.736 E127.86727
G1 X-0.282 Y-67.736 E127.90844
G1 X47.736 Y-19.718 E130.66469
G1 X47.736 Y-18.704 E130.70586
G1 X-1.296 Y-67.736 E133.52034
G1 X-2.310 Y-67.736 E133.56152
G1 X47.736 Y-17.690 E136.43422
G1 X47.736 Y-16.675 E136.47539
G1 X-3.325 Y-67.736 E139.40632
G1 X-4.339 Y-67.736 E139.44749
G1 X47.736 Y-15.661 E142.43665
G1 X47.736 Y-14.647 E142.47782
G1 X-5.353 Y-67.736 E145.52520
G1 X-6.368 Y-67.736 E145.56637
G1 X47.736 Y-13.632 E148.67197
G1 X47.736 Y-12.618 E148.71314
G1 X-7.382 Y-67.736 E151.87697
G1 X-8.396 Y-67.736 E151.91814
G1 X47.736 Y-11.604 E155.14020
G1 X47.736 Y-10.589 E155.18137
G1 X-9.411 Y-67.736 E158.46164
G1 X-10.425 Y-67.736 E158.50282
G1 X47.736 Y-9.575 E161.84132
G1 X47.736 Y-8.561 E161.88249
G1 X-11.439 Y-67.736 E165.27922
G1 X-12.454 Y-67.736 E165.32039
G1 X47.736 Y-7.546 E168.77534
G1 X47.736 Y-6.532 E168.81651
G1 X-13.468 Y-67.736 E172.32969
G1 X-14.483 Y-67.736 E172.37086
G1 X47.736 Y-5.517 E175.94226
G1 X47.736 Y-4.503 E175.98344
G1 X-15.497 Y-67.736 E179.61306
G1 X-16.511 Y-67.736 E179.65423
G1 X47.736 Y-3.489 E183.34209
G1 X47.736 Y-2.474 E183.38326
G1 X-17.526 Y-67.736 E187.12933
G1 X-18.540 Y-67.736 E187.17050
G1 X47.736 Y-1.460 E190.97481
G1 X47.736 Y-0.446 E191.01598
G1 X-19.554 Y-67.736 E194.87850
G1 X-20.569 Y-67.736 E194.91968
G1 X47.736 Y0.569 E198.84043
G1 X47.736 Y1.583 E198.88160
G1 X-21.583 Y-67.736 E202.86057
G1 X-22.597 Y-67.736 E202.90174
G1 X47.736 Y2.597 E206.93895
G1 X47.736 Y3.612 E206.98012
G1 X-23.612 Y-67.736 E211.07554
G1 X-24.626 Y-67.736 E211.11671
G1 X47.736 Y4.626 E215.27036
G1 X47.736 Y5.640 E215.31154
G1 X-25.640 Y-67.736 E219.52341
G1 X-26.655 Y-67.736 E219.56458
G1 X47.736 Y6.655 E223.83468
G1 X47.736 Y7.669 E223.87585
G1 X-27.669 Y-67.736 E228.20418
G1 X-28.684 Y-67.736 E228.24535
G1 X47.736 Y8.684 E232.63190
G1 X47.736 Y9.698 E232.67307
G1 X-29.698 Y-67.736 E237.11785
G1 X-30.712 Y-67.736 E237.15902
G1 X47.736 Y10.712 E241.66202
G1 X47.736 Y11.727 E241.70319
G1 X-31.727 Y-67.736 E246.26441
G1 X-32.741 Y-67.736 E246.30558
G1 X47.736 Y12.741 E250.92503
G1 X47.736 Y13.755 E250.96620
G1 X-33.755 Y-67.736 E255.64388
G1 X-34.770 Y-67.736 E255.68505
G1 X47.736 Y14.770 E260.42095
G1 X47.736 Y15.784 E260.46212
G1 X-35.784 Y-67.736 E265.25624
G1 X-36.798 Y-67.736 E265.29741
G1 X47.736 Y16.798 E270.14976
G1 X47.736 Y17.813 E270.19093
G1 X-37.813 Y-67.736 E275.10151
G1 X-38.827 Y-67.736 E275.14268
G1 X47.736 Y18.827 E280.11148
G1 X47.736 Y19.841 E280.15265
G1 X-39.841 Y-67.736 E285.17967
G1 X-40.856 Y-67.736 E285.22084
G1 X47.736 Y20.856 E290.30609
G1 X47.736 Y21.870 E290.34726
G1 X-41.870 Y-67.736 E295.49073
G1 X-42.884 Y-67.736 E295.53190
G1 X47.736 Y22.884 E300.73360
G1 X47.736 Y23.899 E300.77477
G1 X-43.899 Y-67.736 E306.03469
G1 X-44.913 Y-67.736 E306.07586
G1 X47.736 Y24.913 E311.39401
G1 X47.736 Y25.928 E311.43518
G1 X-45.928 Y-67.736 E316.81155
G1 X-46.942 Y-67.736 E316.85273
G1 X47.736 Y26.942 E322.28732
G1 X47.736 Y27.956 E322.32849
G1 X-47.736 Y-67.516 E327.80868
G1 X-47.736 Y-66.502 E327.84985
G1 X47.736 Y28.971 E333.33004
G1 X47.736 Y29.985 E333.37121
G1 X-47.736 Y-65.487 E338.85140
G1 X-47.736 Y-64.473 E338.89257
G1 X47.736 Y30.999 E344.37276
G1 X47.736 Y32.014 E344.41393
G1 X-47.736 Y-63.459 E349.89411
G1 X-47.736 Y-62.444 E349.93529
G1 X47.736 Y33.028 E355.41547
G1 X47.736 Y34.042 E355.45664
G1 X-47.736 Y-61.430 E360.93683
G1 X-47.736 Y-60.416 E360.97800
G1 X47.736 Y35.057 E366.45819
G1 X47.736 Y36.071 E366.49936
G1 X-47.736 Y-59.401 E371.97955
G1 X-47.736 Y-58.387 E372.02072
G1 X47.736 Y37.085 E377.50091
G1 X47.736 Y38.100 E377.54208
G1 X-47.736 Y-57.373 E383.02227
G1 X-47.736 Y-56.358 E383.06344
G1 X47.736 Y39.114 E388.54362
G1 X47.736 Y40.129 E388.58480
G1 X-47.736 Y-55.344 E394.06498
G1 X-47.736 Y-54.329 E394.10615
G1 X47.736 Y41.143 E399.58634
G1 X47.736 Y42.157 E399.62751
G1 X-47.736 Y-53.315 E405.10770
G1 X-47.736 Y-52.301 E405.14887
G1 X47.736 Y43.172 E410.62906
G1 X47.736 Y44.186 E410.67023
G1 X-47.736 Y-51.286 E416.15042
G1 X-47.736 Y-50.272 E416.19159
G1 X47.736 Y45.200 E421.67177
G1 X47.736 Y46.215 E421.71295
G1 X-47.736 Y-49.258 E427.19313
G1 X-47.736 Y-48.243 E427.23430
G1 X47.736 Y47.229 E432.71449
G1 X47.736 Y48.243 E432.75566
G1 X-47.736 Y-47.229 E438.23585
G1 X-47.736 Y-46.215 E438.27702
G1 X47.736 Y49.258 E443.75721
G1 X47.736 Y50.272 E443.79838
G1 X-47.736 Y-45.200 E449.27857
G1 X-47.736 Y-44.186 E449.31974
G1 X47.736 Y51.286 E454.79993
G1 X47.736 Y52.301 E454.84110
G1 X-47.736 Y-43.172 E460.32128
G1 X-47.736 Y-42.157 E460.36245
G1 X47.736 Y53.315 E465.84264
G1 X47.736 Y54.330 E465.88381
G1 X-47.736 Y-41.143 E471.36400
G1 X-47.736 Y-40.128 E471.40517
G1 X47.736 Y55.344 E476.88536
G1 X47.736 Y56.358 E476.92653
G1 X-47.736 Y-39.114 E482.40672
G1 X-47.736 Y-38.100 E482.44789
G1 X47.736 Y57.373 E487.92808
G1 X47.736 Y58.387 E487.96925
G1 X-47.736 Y-37.085 E493.44943
G1 X-47.736 Y-36.071 E493.49061
G1 X47.736 Y59.401 E498.97079
G1 X47.736 Y60.416 E499.01196
G1 X-47.736 Y-35.057 E504.49215
G1 X-47.736 Y-34.042 E504.53332
G1 X47.736 Y61.430 E510.01351
G1 X47.736 Y62.444 E510.05468
G1 X-47.736 Y-33.028 E515.53487
G1 X-47.736 Y-32.014 E515.57604
G1 X47.736 Y63.459 E521.05623
G1 X47.736 Y64.473 E521.09740
G1 X-47.736 Y-30.999 E526.57758
G1 X-47.736 Y-29.985 E526.61876
G1 X47.736 Y65.487 E532.09894
G1 X47.736 Y66.502 E532.14011
G1 X-47.736 Y-28.971 E537.62030
G1 X-47.736 Y-27.956 E537.66147
G1 X47.736 Y67.516 E543.14166
G1 X46.942 Y67.736 E543.17512
G1 X-47.736 Y-26.942 E548.60971
G1 X-47.736 Y-25.927 E548.65088
G1 X45.927 Y67.736 E554.02725
G1 X44.913 Y67.736 E554.06842
G1 X-47.736 Y-24.913 E559.38656
G1 X-47.736 Y-23.899 E559.42773
G1 X43.899 Y67.736 E564.68765
G1 X42.884 Y67.736 E564.72882
G1 X-47.736 Y-22.884 E569.93051
G1 X-47.736 Y-21.870 E569.97168
G1 X41.870 Y67.736 E575.11515
G1 X40.856 Y67.736 E575.15632
G1 X-47.736 Y-20.856 E580.24156
G1 X-47.736 Y-19.841 E580.28274
G1 X39.841 Y67.736 E585.30975
G1 X38.827 Y67.736 E585.35093
G1 X-47.736 Y-18.827 E590.31972
G1 X-47.736 Y-17.813 E590.36089
G1 X37.813 Y67.736 E595.27146
G1 X36.798 Y67.736 E595.31263
G1 X-47.736 Y-16.798 E600.16497
G1 X-47.736 Y-15.784 E600.20614
G1 X35.784 Y67.736 E605.00026
G1 X34.770 Y67.736 E605.04143
G1 X-47.736 Y-14.770 E609.77733
G1 X-47.736 Y-13.755 E609.81850
G1 X33.755 Y67.736 E614.49617
G1 X32.741 Y67.736 E614.53734
G1 X-47.736 Y-12.741 E619.15678
G1 X-47.736 Y-11.726 E619.19796
G1 X31.726 Y67.736 E623.75918
G1 X30.712 Y67.736 E623.80035
G1 X-47.736 Y-10.712 E628.30334
G1 X-47.736 Y-9.698 E628.34451
G1 X29.698 Y67.736 E632.78928
G1 X28.683 Y67.736 E632.83045
G1 X-47.736 Y-8.683 E637.21700
G1 X-47.736 Y-7.669 E637.25817
G1 X27.669 Y67.736 E641.58649
G1 X26.655 Y67.736 E641.62766
G1 X-47.736 Y-6.655 E645.89776
G1 X-47.736 Y-5.640 E645.93893
G1 X25.640 Y67.736 E650.15080
G1 X24.626 Y67.736 E650.19197
G1 X-47.736 Y-4.626 E654.34562
G1 X-47.736 Y-3.612 E654.38679
G1 X23.612 Y67.736 E658.48221
G1 X22.597 Y67.736 E658.52338
G1 X-47.736 Y-2.597 E662.56058
G1 X-47.736 Y-1.583 E662.60175
G1 X21.583 Y67.736 E666.58072
G1 X20.569 Y67.736 E666.62189
G1 X-47.736 Y-0.569 E670.54264
G1 X-47.736 Y0.446 E670.58381
G1 X19.554 Y67.736 E674.44633
G1 X18.540 Y67.736 E674.48750
G1 X-47.736 Y1.460 E678.29180
G1 X-47.736 Y2.474 E678.33297
G1 X17.526 Y67.736 E682.07904
G1 X16.511 Y67.736 E682.12021
G1 X-47.736 Y3.489 E685.80806
G1 X-47.736 Y4.503 E685.84923
G1 X15.497 Y67.736 E689.47885
G1 X14.482 Y67.736 E689.52002
G1 X-47.736 Y5.518 E693.09142
G1 X-47.736 Y6.532 E693.13259
G1 X13.468 Y67.736 E696.64577
G1 X12.454 Y67.736 E696.68694
G1 X-47.736 Y7.546 E700.14188
G1 X-47.736 Y8.561 E700.18306
G1 X11.439 Y67.736 E703.57978
G1 X10.425 Y67.736 E703.62095
G1 X-47.736 Y9.575 E706.95945
G1 X-47.736 Y10.589 E707.00062
G1 X9.411 Y67.736 E710.28089
G1 X8.396 Y67.736 E710.32206
G1 X-47.736 Y11.604 E713.54411
G1 X-47.736 Y12.618 E713.58528
G1 X7.382 Y67.736 E716.74911
G1 X6.368 Y67.736 E716.79028
G1 X-47.736 Y13.632 E719.89588
G1 X-47.736 Y14.647 E719.93705
G1 X5.353 Y67.736 E722.98442
G1 X4.339 Y67.736 E723.02559
G1 X-47.736 Y15.661 E726.01474
G1 X-47.736 Y16.675 E726.05592
G1 X3.325 Y67.736 E728.98684
G1 X2.310 Y67.736 E729.02801
G1 X-47.736 Y17.690 E731.90071
G1 X-47.736 Y18.704 E731.94188
G1 X1.296 Y67.736 E734.75636
G1 X0.281 Y67.736 E734.79753
G1 X-47.736 Y19.719 E737.55378
G1 X-47.736 Y20.733 E737.59495
G1 X-0.733 Y67.736 E740.29297
G1 X-1.747 Y67.736 E740.33415
G1 X-47.736 Y21.747 E742.97395
G1 X-47.736 Y22.762 E743.01512
G1 X-2.762 Y67.736 E745.59669
G1 X-3.776 Y67.736 E745.63786
G1 X-47.736 Y23.776 E748.16121
G1 X-47.736 Y24.790 E748.20239
G1 X-4.790 Y67.736 E750.66751
G1 X-5.805 Y67.736 E750.70868
G1 X-47.736 Y25.805 E753.11558
G1 X-47.736 Y26.819 E753.15676
G1 X-6.819 Y67.736 E755.50543
G1 X-7.833 Y67.736 E755.54660
G1 X-47.736 Y27.833 E757.83705
G1 X-47.736 Y28.848 E757.87823
G1 X-8.848 Y67.736 E760.11045
G1 X-9.862 Y67.736 E760.15162
G1 X-47.736 Y29.862 E762.32563
G1 X-47.736 Y30.876 E762.36680
G1 X-10.876 Y67.736 E764.48257
G1 X-11.891 Y67.736 E764.52374
G1 X-47.736 Y31.891 E766.58130
G1 X-47.736 Y32.905 E766.62247
G1 X-12.905 Y67.736 E768.62180
G1 X-13.920 Y67.736 E768.66297
G1 X-47.736 Y33.920 E770.60407
G1 X-47.736 Y34.934 E770.64524
